X:7024
T:Grand Hornpipe, The
R:Hornpipe
C:Trad.
O:England
Z:Paul Hardy's Session Tunebook 2015 (see www.paulhardy.net). Creative Commons cc by-nc-sa licenced.
M:4/4
L:1/8
Q:1/4=140
K:G
dc|"G"B2Bc dedc|B2Bc dedc|B2G2G2cB|"D"A2D2 D2dc|
"G"B2Bc dedc|B2Bc dedc|BdGB "D"cAFA|"G"G2G2G2:|
|:d2|"G"gfga gdBd|gfga gdBd|gfga "Em"b2bg|"D"fefg afdf|
"C"e2ef gece|"G"d2de dBGB|"D"A2AB cAFA|"G"G2B2G2:|

